static/img/svg/first-aid.svg

<svg xmlns="http://www.w3.org/2000/svg" width="24" height="24" viewBox="0 0 24 24"><path d="M21,6h-4V3c0-0.552-0.447-1-1-1H8C7.447,2,7,2.448,7,3v3H3C2.447,6,2,6.448,2,7v14c0,0.552,0.447,1,1,1h18 c0.553,0,1-0.448,1-1V7C22,6.448,21.553,6,21,6z M9,4h6v2H9V4z M20,20H4V8h4h8h4V20z"/><path d="M13 10L11 10 11 13 8 13 8 15 11 15 11 18 13 18 13 15 16 15 16 13 13 13z"/></svg>

<svg xmlns="http://www.w3.org/2000/svg" width="24" height="24" viewBox="0 0 24 24"><path d="M21 6h-4V3a1 1 0 0 0-1-1H8a1 1 0 0 0-1 1v3H3a1 1 0 0 0-1 1v14a1 1 0 0 0 1 1h18a1 1 0 0 0 1-1V7a1 1 0 0 0-1-1zM9 4h6v2H9V4zm11 16H4V8h16v12z"/><path d="M13 10h-2v3H8v2h3v3h2v-3h3v-2h-3z"/></svg>
